svg/material-icons/sports_volleyball/materialiconsoutlined/20px.svg

<svg xmlns="http://www.w3.org/2000/svg" width="20" height="20" viewBox="0 0 20 20"><path d="M10 3c-3.87 0-7 3.13-7 7s3.13 7 7 7 7-3.13 7-7-3.13-7-7-7zm.5 1.04c2.66.22 4.84 2.17 5.37 4.73l-5.37-3.1V4.04zM7 4.81c.75-.43 1.6-.7 2.5-.78v5.68L7 11.15V4.81zm-2.42 7.74A5.89 5.89 0 0 1 4 10c0-1.77.78-3.35 2-4.45v6.18l-1.42.82zm.5.87L10 10.58l2.5 1.44-5.48 3.17c-.77-.45-1.44-1.04-1.94-1.77zM10 16c-.65 0-1.28-.11-1.87-.3l5.37-3.1 1.42.82A5.97 5.97 0 0 1 10 16zm.5-6.29V6.82L16 10c0 .91-.21 1.77-.58 2.55L10.5 9.71z"/></svg>

<svg xmlns="http://www.w3.org/2000/svg" enable-background="new 0 0 20 20" height="20" viewBox="0 0 20 20" width="20"><g><rect fill="none" height="20" width="20" x="0"/></g><g><g><path d="M10,3c-3.87,0-7,3.13-7,7c0,3.87,3.13,7,7,7c3.87,0,7-3.13,7-7C17,6.13,13.87,3,10,3z M10.5,4.04 c2.66,0.22,4.84,2.17,5.37,4.73L10.5,5.67V4.04z M7,4.81c0.75-0.43,1.6-0.7,2.5-0.78v5.68L7,11.15V4.81z M4.58,12.55 C4.21,11.78,4,10.91,4,10c0-1.77,0.78-3.35,2-4.45v6.18L4.58,12.55z M5.08,13.42L10,10.58l2.5,1.44l-5.48,3.17 C6.25,14.74,5.58,14.15,5.08,13.42z M10,16c-0.65,0-1.28-0.11-1.87-0.3l5.37-3.1l1.42,0.82C13.84,14.98,12.04,16,10,16z M10.5,9.71V6.82l5.5,3.18c0,0.91-0.21,1.77-0.58,2.55L10.5,9.71z"/></g></g></svg>
